X:1
T:Title
%%score ( 1 2 ) { ( 3 6 ) | ( 4 5 ) }
L:1/8
Q:1/4=108
M:4/2
K:F
V:1 treble nm="Bright Piano"
V:2 treble 
V:3 bass nm="Bright Piano"
V:6 bass 
V:4 bass 
V:5 bass 
V:1
 [FA]2 [FA]2 F2 F2 [B,D]2 [B,D]2 C4 | z8 c8 | [FA]2 [FA]2 F2 F2 [B,D]2 [B,D]2 C2 C2 | %3
w: R�deger~L�ders * * * * * *|||
 [DF]2 F2 [FG]2 [EG]2 F4 F2 A2 | c4 A2 G2 F4 [EG]2 [FA]2 | z8 c8 | %6
w: |||
 [FA]2 [FA]2 F2 F2 [B,D]2 [B,D]2 C4 | [DF]2 F2 [FG]2 [EG]2 [CF]8 |] %8
w: ||
V:2
 x16 | [DF]2 [DF]2 [Fc]2 [Fd]2 F4 E4 | x16 | x16 | x16 | [DB]4 [Fc]2 [Fd]2 F4 E4 | x16 | x16 |] %8
V:3
 C2 C2 C2 C2 F,2 G,2 A,4 | A,2 A,2 F,2 B,2 G,8 | C2 C2 C2 C2 F,2 G,2 A,2 A,2 | %3
 A,2 A,2 C4 A,4 F,2 A,2 | C4 A,2 G,2 z2 A,2 C2 C2 | F,4 F,2 B,2 G,8 | C2 C2 C2 C2 F,2 G,2 A,4 | %7
 A,2 A,2 C4 A,8 |] %8
V:4
 F,2 F,2 A,,2 A,,2 B,,2 B,,2 F,2 E,2 | D,2 D,2 A,,2 B,,2 C,8 | %2
 F,2 F,2 A,,2 A,,2 B,,2 B,,2 F,2 E,2 | D,2 D,2 .C,3 B, F,4 z4 | z8 z4 C,2 F,2 | %5
 B,,4 A,,2 B,,2 C,8 | F,2 F,2 A,,2 A,,2 B,,2 B,,2 F,2 E,2 | D,2 D,2 .C,3 B, F,8 |] %8
V:5
 x16 | x16 | x16 | z4 z2 C,2 z8 | x16 | x16 | x16 | z4 z2 C,2 z8 |] %8
V:6
 x16 | x16 | x16 | x16 | z8 F,4 z4 | x16 | x16 | x16 |] %8

